src/4-icons/image.svg

<svg width="260" height="260" viewBox="0 0 260 260" fill="none" xmlns="http://www.w3.org/2000/svg">
<g opacity="0.9">
<path fill-rule="evenodd" clip-rule="evenodd" d="M36 93C36 109.569 49.4315 123 66 123C82.5685 123 96 109.569 96 93C96 76.4315 82.5685 63 66 63C49.4315 63 36 76.4315 36 93ZM50 93C50 101.837 57.1634 109 66 109C74.8366 109 82 101.837 82 93C82 84.1634 74.8366 77 66 77C57.1634 77 50 84.1634 50 93Z" fill="black"/>
<path fill-rule="evenodd" clip-rule="evenodd" d="M0 38C0 36.3431 1.34315 35 3 35H257C258.657 35 260 36.3431 260 38V222C260 223.657 258.657 225 257 225H0V38ZM246 49V103.059C231.984 83.0686 208.768 70 182.5 70C140.114 70 105.676 104.026 105.01 146.253C96.329 142.862 86.8819 141 77 141C50.9578 141 27.9351 153.928 14 173.717V49H246ZM153.686 211C151.514 186.894 138.232 165.992 119 153.453V147.5C119 112.43 147.43 84 182.5 84C217.57 84 246 112.43 246 147.5V211H153.686ZM139.615 211C136.133 179.5 109.428 155 77 155C44.5721 155 17.8666 179.5 14.3845 211H139.615Z" fill="black"/>
</g>
</svg>

<svg width="260" height="260" viewBox="0 0 260 260" fill="none" xmlns="http://www.w3.org/2000/svg"><g opacity=".9" fill-rule="evenodd" clip-rule="evenodd" fill="#000"><path d="M36 93c0 16.569 13.431 30 30 30 16.569 0 30-13.431 30-30 0-16.569-13.431-30-30-30-16.569 0-30 13.431-30 30Zm14 0c0 8.837 7.163 16 16 16s16-7.163 16-16-7.163-16-16-16-16 7.163-16 16Z"/><path d="M0 38a3 3 0 0 1 3-3h254a3 3 0 0 1 3 3v184a3 3 0 0 1-3 3H0V38Zm246 11v54.059C231.984 83.069 208.768 70 182.5 70c-42.386 0-76.824 34.026-77.49 76.253C96.329 142.862 86.882 141 77 141c-26.042 0-49.065 12.928-63 32.717V49h232Zm-92.314 162c-2.172-24.106-15.454-45.008-34.686-57.547V147.5c0-35.07 28.43-63.5 63.5-63.5s63.5 28.43 63.5 63.5V211h-92.314Zm-14.071 0c-3.482-31.5-30.187-56-62.615-56s-59.133 24.5-62.615 56h125.23Z"/></g></svg>
